Icons/com_samsung_android_app_pinboard_ui_PinboardActivity.svg

<svg viewBox="0 0 48 48" xmlns:xlink="http://www.w3.org/1999/xlink">
 <defs>
  <linearGradient id="0">
   <stop stop-opacity="0"/>
   <stop offset="1"/>
  </linearGradient>
  <linearGradient xlink:href="#0" id="1" gradientUnits="userSpaceOnUse" gradientTransform="translate(4e-7,-48)" y1="47" x2="0" y2="1"/>
  <clipPath id="2">
   <g transform="translate(0,-1004.3622)">
    <rect rx="4" y="1005.36" x="1" height="46" width="46" fill="#1890d0"/>
   </g>
  </clipPath>
  <clipPath id="3">
   <g transform="translate(0,-1004.3622)">
    <rect rx="4" y="1005.36" x="1" height="46" width="46" fill="#1890d0"/>
   </g>
  </clipPath>
 </defs>
 <g>
  <g transform="translate(0,-1004.3622)">
   <path d="m 5,1006.3622 c -2.216,0 -4,1.784 -4,4 l 0,37.25 c 0,2.216 1.784,4 4,4 l 38,0 c 2.216,0 4,-1.784 4,-4 l 0,-37.25 c 0,-2.216 -1.784,-4 -4,-4 l -38,0 z m -4,41.5 0,0.5 c 0,2.216 1.784,4 4,4 l 38,0 c 2.216,0 4,-1.784 4,-4 l 0,-0.5 c 0,2.216 -1.784,4 -4,4 l -38,0 c -2.216,0 -4,-1.784 -4,-4 z" opacity="0.02"/>
   <path d="m 1,1047.6122 0,0.25 c 0,2.216 1.784,4 4,4 l 38,0 c 2.216,0 4,-1.784 4,-4 l 0,-0.25 c 0,2.216 -1.784,4 -4,4 l -38,0 c -2.216,0 -4,-1.784 -4,-4 z" opacity="0.05"/>
   <rect width="46" height="46" x="1" y="1005.61" rx="4" opacity="0.1"/>
  </g>
 </g>
 <g>
  <g transform="translate(0,-1004.3622)">
   <rect rx="4" y="1005.36" x="1" height="46" width="46" fill="#d2935a"/>
  </g>
 </g>
 <g>
  <rect transform="scale(1,-1)" width="46" height="46" x="1" y="-46.998" rx="4" opacity="0.1" fill="url(#1)"/>
 </g>
 <g>
  <g clip-path="url(#2)">
   <g opacity="0.1">
    <g>
     <path d="M 24.621094 13 C 23.953125 13.011719 23.195312 13.363281 22.960938 14.253906 C 22.527344 15.929688 23.609375 16.511719 24.484375 15.089844 C 24.757812 14.644531 25.269531 14.523438 25.730469 14.808594 C 26.210938 15.109375 26.492188 14.886719 26.28125 14.253906 C 25.992188 13.371094 25.292969 12.988281 24.621094 13 Z M 28.359375 13.976562 C 28.003906 14.003906 27.652344 14.1875 27.527344 14.394531 C 27.308594 14.75 27.675781 15.148438 28.21875 15.367188 C 29.832031 16.023438 31.125 15.976562 31.125 15.226562 C 31.125 14.519531 29.425781 13.886719 28.359375 13.976562 Z M 13 15.089844 C 13 21.726562 13 28.363281 13 35 L 16.320312 34.722656 L 19 35 C 19 28.332031 19 21.667969 19 15 L 16.320312 15.089844 Z M 33.476562 15.089844 C 31.652344 15.089844 31.5625 15.480469 32.925781 17.039062 C 34.3125 18.625 35 18.605469 35 16.757812 C 35 15.703125 34.527344 15.089844 33.476562 15.089844 Z M 23.101562 17.457031 C 22.707031 17.457031 22.410156 17.691406 22.410156 17.875 C 22.410156 18.054688 22.257812 18.714844 21.992188 19.40625 C 21.730469 20.09375 21.839844 20.660156 22.269531 20.660156 C 22.699219 20.660156 23.289062 20 23.515625 19.125 C 23.742188 18.253906 23.492188 17.457031 23.101562 17.457031 Z M 33.617188 19.824219 C 33.234375 19.824219 32.734375 20.621094 32.507812 21.492188 C 32.023438 23.363281 33.0625 23.589844 33.753906 21.773438 C 34.390625 20.109375 34.4375 19.824219 33.617188 19.824219 Z M 21.855469 21.492188 C 21.726562 21.503906 21.59375 21.789062 21.300781 22.46875 C 20.886719 23.433594 20.992188 24.234375 21.71875 24.695312 C 23.171875 25.625 24.070312 25.667969 24.070312 24.695312 C 24.070312 24.261719 23.640625 23.859375 23.238281 23.859375 C 22.835938 23.859375 22.453125 23.230469 22.269531 22.46875 C 22.117188 21.824219 21.984375 21.484375 21.855469 21.492188 Z M 32.234375 24.417969 C 31.222656 24.660156 29.464844 25.726562 29.464844 26.367188 C 29.464844 26.667969 30.089844 27.046875 30.847656 27.203125 C 32.183594 27.476562 33.59375 25.585938 32.925781 24.417969 C 32.832031 24.257812 32.570312 24.335938 32.234375 24.417969 Z M 26.28125 24.695312 C 25.390625 24.695312 24.910156 24.957031 25.175781 25.390625 C 25.445312 25.828125 26.210938 26.226562 26.835938 26.226562 C 27.460938 26.226562 27.945312 25.828125 27.945312 25.390625 C 27.945312 24.957031 27.175781 24.695312 26.28125 24.695312 Z M 22 29 C 22 31 22 33 22 35 L 27.113281 34.859375 L 33 35 C 33 33 33 31 33 29 C 29.332031 29 25.667969 29 22 29 Z M 22 29 "/>
    </g>
   </g>
  </g>
 </g>
 <g>
  <g clip-path="url(#3)">
   <g transform="translate(0,-1)">
    <g>
     <path d="M 24.621094 13 C 23.953125 13.011719 23.195312 13.363281 22.960938 14.253906 C 22.527344 15.929688 23.609375 16.511719 24.484375 15.089844 C 24.757812 14.644531 25.269531 14.523438 25.730469 14.808594 C 26.210938 15.109375 26.492188 14.886719 26.28125 14.253906 C 25.992188 13.371094 25.292969 12.988281 24.621094 13 Z M 28.359375 13.976562 C 28.003906 14.003906 27.652344 14.1875 27.527344 14.394531 C 27.308594 14.75 27.675781 15.148438 28.21875 15.367188 C 29.832031 16.023438 31.125 15.976562 31.125 15.226562 C 31.125 14.519531 29.425781 13.886719 28.359375 13.976562 Z M 13 15.089844 C 13 21.726562 13 28.363281 13 35 L 16.320312 34.722656 L 19 35 C 19 28.332031 19 21.667969 19 15 L 16.320312 15.089844 Z M 33.476562 15.089844 C 31.652344 15.089844 31.5625 15.480469 32.925781 17.039062 C 34.3125 18.625 35 18.605469 35 16.757812 C 35 15.703125 34.527344 15.089844 33.476562 15.089844 Z M 23.101562 17.457031 C 22.707031 17.457031 22.410156 17.691406 22.410156 17.875 C 22.410156 18.054688 22.257812 18.714844 21.992188 19.40625 C 21.730469 20.09375 21.839844 20.660156 22.269531 20.660156 C 22.699219 20.660156 23.289062 20 23.515625 19.125 C 23.742188 18.253906 23.492188 17.457031 23.101562 17.457031 Z M 33.617188 19.824219 C 33.234375 19.824219 32.734375 20.621094 32.507812 21.492188 C 32.023438 23.363281 33.0625 23.589844 33.753906 21.773438 C 34.390625 20.109375 34.4375 19.824219 33.617188 19.824219 Z M 21.855469 21.492188 C 21.726562 21.503906 21.59375 21.789062 21.300781 22.46875 C 20.886719 23.433594 20.992188 24.234375 21.71875 24.695312 C 23.171875 25.625 24.070312 25.667969 24.070312 24.695312 C 24.070312 24.261719 23.640625 23.859375 23.238281 23.859375 C 22.835938 23.859375 22.453125 23.230469 22.269531 22.46875 C 22.117188 21.824219 21.984375 21.484375 21.855469 21.492188 Z M 32.234375 24.417969 C 31.222656 24.660156 29.464844 25.726562 29.464844 26.367188 C 29.464844 26.667969 30.089844 27.046875 30.847656 27.203125 C 32.183594 27.476562 33.59375 25.585938 32.925781 24.417969 C 32.832031 24.257812 32.570312 24.335938 32.234375 24.417969 Z M 26.28125 24.695312 C 25.390625 24.695312 24.910156 24.957031 25.175781 25.390625 C 25.445312 25.828125 26.210938 26.226562 26.835938 26.226562 C 27.460938 26.226562 27.945312 25.828125 27.945312 25.390625 C 27.945312 24.957031 27.175781 24.695312 26.28125 24.695312 Z M 22 29 C 22 31 22 33 22 35 L 27.113281 34.859375 L 33 35 C 33 33 33 31 33 29 C 29.332031 29 25.667969 29 22 29 Z M 22 29 " fill="#ffffff"/>
    </g>
   </g>
  </g>
 </g>
 <g>
  <g transform="translate(0,-1004.3622)">
   <path d="m 1,1043.3622 0,4 c 0,2.216 1.784,4 4,4 l 38,0 c 2.216,0 4,-1.784 4,-4 l 0,-4 c 0,2.216 -1.784,4 -4,4 l -38,0 c -2.216,0 -4,-1.784 -4,-4 z" opacity="0.1"/>
  </g>
 </g>
</svg>

<svg viewBox="0 0 48 48"><defs><linearGradient id="linearGradient3764" x1="1" x2="47" gradientUnits="userSpaceOnUse" gradientTransform="translate(-48.000001,0.00221467)"><stop stop-color="#ce884a" stop-opacity="1"/><stop offset="1" stop-color="#d2935a" stop-opacity="1"/></linearGradient><clipPath id="clipPath-940103312"><g transform="translate(0,-1004.3622)"><rect rx="4" y="1005.36" x="1" height="46" width="46" fill="#1890d0"/></g></clipPath><clipPath id="clipPath-969303487"><g transform="translate(0,-1004.3622)"><rect rx="4" y="1005.36" x="1" height="46" width="46" fill="#1890d0"/></g></clipPath></defs><g><path d="m 1 43 l 0 0.25 c 0 2.216 1.784 4 4 4 l 38 0 c 2.216 0 4 -1.784 4 -4 l 0 -0.25 c 0 2.216 -1.784 4 -4 4 l -38 0 c -2.216 0 -4 -1.784 -4 -4 z m 0 0.5 l 0 0.5 c 0 2.216 1.784 4 4 4 l 38 0 c 2.216 0 4 -1.784 4 -4 l 0 -0.5 c 0 2.216 -1.784 4 -4 4 l -38 0 c -2.216 0 -4 -1.784 -4 -4 z" opacity="0.02"/><path d="m 1 43.25 l 0 0.25 c 0 2.216 1.784 4 4 4 l 38 0 c 2.216 0 4 -1.784 4 -4 l 0 -0.25 c 0 2.216 -1.784 4 -4 4 l -38 0 c -2.216 0 -4 -1.784 -4 -4 z" opacity="0.05"/><path d="m 1 43 l 0 0.25 c 0 2.216 1.784 4 4 4 l 38 0 c 2.216 0 4 -1.784 4 -4 l 0 -0.25 c 0 2.216 -1.784 4 -4 4 l -38 0 c -2.216 0 -4 -1.784 -4 -4 z" opacity="0.1"/></g><g><rect width="46" height="46" x="-47" y="1" rx="4" transform="matrix(0,-1,1,0,0,0)" fill="url(#linearGradient3764)" fill-opacity="1"/></g><g><g clip-path="url(#clipPath-940103312)"><g opacity="0.1"><!-- color: #d2935a --><g><path d="m 24.621 13 c -0.668 0.012 -1.426 0.363 -1.66 1.254 c -0.434 1.676 0.648 2.258 1.523 0.836 c 0.273 -0.445 0.785 -0.566 1.246 -0.281 c 0.48 0.301 0.762 0.078 0.551 -0.555 c -0.289 -0.883 -0.988 -1.266 -1.66 -1.254 m 3.738 0.977 c -0.355 0.027 -0.707 0.211 -0.832 0.418 c -0.219 0.355 0.148 0.754 0.691 0.973 c 1.613 0.656 2.906 0.609 2.906 -0.141 c 0 -0.707 -1.699 -1.34 -2.766 -1.25 m -15.359 1.113 c 0 6.637 0 13.273 0 19.91 l 3.32 -0.277 l 2.68 0.277 c 0 -6.668 0 -13.332 0 -20 l -2.68 0.09 m 17.16 0 c -1.824 0 -1.914 0.391 -0.551 1.949 c 1.387 1.586 2.074 1.566 2.074 -0.281 c 0 -1.055 -0.473 -1.668 -1.523 -1.668 m -10.375 2.367 c -0.395 0 -0.691 0.234 -0.691 0.418 c 0 0.18 -0.152 0.84 -0.418 1.531 c -0.262 0.688 -0.152 1.254 0.277 1.254 c 0.43 0 1.02 -0.66 1.246 -1.535 c 0.227 -0.871 -0.023 -1.668 -0.414 -1.668 m 10.516 2.367 c -0.383 0 -0.883 0.797 -1.109 1.668 c -0.484 1.871 0.555 2.098 1.246 0.281 c 0.637 -1.664 0.684 -1.949 -0.137 -1.949 m -11.762 1.668 c -0.129 0.012 -0.262 0.297 -0.555 0.977 c -0.414 0.965 -0.309 1.766 0.418 2.227 c 1.453 0.93 2.352 0.973 2.352 0 c 0 -0.434 -0.43 -0.836 -0.832 -0.836 c -0.402 0 -0.785 -0.629 -0.969 -1.391 c -0.152 -0.645 -0.285 -0.984 -0.414 -0.977 m 10.379 2.926 c -1.012 0.242 -2.77 1.309 -2.77 1.949 c 0 0.301 0.625 0.68 1.383 0.836 c 1.336 0.273 2.746 -1.617 2.078 -2.785 c -0.094 -0.16 -0.355 -0.082 -0.691 0 m -5.953 0.277 c -0.891 0 -1.371 0.262 -1.105 0.695 c 0.27 0.438 1.035 0.836 1.66 0.836 c 0.625 0 1.109 -0.398 1.109 -0.836 c 0 -0.434 -0.77 -0.695 -1.664 -0.695 m -4.281 4.305 c 0 2 0 4 0 6 l 5.113 -0.141 l 5.887 0.141 c 0 -2 0 -4 0 -6 c -3.668 0 -7.332 0 -11 0 m 0 0" fill="#000"/></g></g></g></g><g><g clip-path="url(#clipPath-969303487)"><g transform="translate(0,-1)"><!-- color: #d2935a --><g><path d="m 24.621 13 c -0.668 0.012 -1.426 0.363 -1.66 1.254 c -0.434 1.676 0.648 2.258 1.523 0.836 c 0.273 -0.445 0.785 -0.566 1.246 -0.281 c 0.48 0.301 0.762 0.078 0.551 -0.555 c -0.289 -0.883 -0.988 -1.266 -1.66 -1.254 m 3.738 0.977 c -0.355 0.027 -0.707 0.211 -0.832 0.418 c -0.219 0.355 0.148 0.754 0.691 0.973 c 1.613 0.656 2.906 0.609 2.906 -0.141 c 0 -0.707 -1.699 -1.34 -2.766 -1.25 m -15.359 1.113 c 0 6.637 0 13.273 0 19.91 l 3.32 -0.277 l 2.68 0.277 c 0 -6.668 0 -13.332 0 -20 l -2.68 0.09 m 17.16 0 c -1.824 0 -1.914 0.391 -0.551 1.949 c 1.387 1.586 2.074 1.566 2.074 -0.281 c 0 -1.055 -0.473 -1.668 -1.523 -1.668 m -10.375 2.367 c -0.395 0 -0.691 0.234 -0.691 0.418 c 0 0.18 -0.152 0.84 -0.418 1.531 c -0.262 0.688 -0.152 1.254 0.277 1.254 c 0.43 0 1.02 -0.66 1.246 -1.535 c 0.227 -0.871 -0.023 -1.668 -0.414 -1.668 m 10.516 2.367 c -0.383 0 -0.883 0.797 -1.109 1.668 c -0.484 1.871 0.555 2.098 1.246 0.281 c 0.637 -1.664 0.684 -1.949 -0.137 -1.949 m -11.762 1.668 c -0.129 0.012 -0.262 0.297 -0.555 0.977 c -0.414 0.965 -0.309 1.766 0.418 2.227 c 1.453 0.93 2.352 0.973 2.352 0 c 0 -0.434 -0.43 -0.836 -0.832 -0.836 c -0.402 0 -0.785 -0.629 -0.969 -1.391 c -0.152 -0.645 -0.285 -0.984 -0.414 -0.977 m 10.379 2.926 c -1.012 0.242 -2.77 1.309 -2.77 1.949 c 0 0.301 0.625 0.68 1.383 0.836 c 1.336 0.273 2.746 -1.617 2.078 -2.785 c -0.094 -0.16 -0.355 -0.082 -0.691 0 m -5.953 0.277 c -0.891 0 -1.371 0.262 -1.105 0.695 c 0.27 0.438 1.035 0.836 1.66 0.836 c 0.625 0 1.109 -0.398 1.109 -0.836 c 0 -0.434 -0.77 -0.695 -1.664 -0.695 m -4.281 4.305 c 0 2 0 4 0 6 l 5.113 -0.141 l 5.887 0.141 c 0 -2 0 -4 0 -6 c -3.668 0 -7.332 0 -11 0 m 0 0" fill="#fff"/></g></g></g></g><g><g transform="translate(0,-1004.3622)"><path d="m 1 1043.36 0 4 c 0 2.216 1.784 4 4 4 l 38 0 c 2.216 0 4 -1.784 4 -4 l 0 -4 c 0 2.216 -1.784 4 -4 4 l -38 0 c -2.216 0 -4 -1.784 -4 -4 z" opacity="0.1"/></g></g></svg>
